X: 1
T: Hop Down, The
M: 4/4
L: 1/8
R: reel
K: Amix
B/c/d|:e2E2 A2GB|A2B/c/d ed B/c/d|agec d2ed|BAGB d2 B/c/d:|
|eA~A2 eAdA|eAfA gAfA|eA~A2 eAdA|BAGB d2 B/c/d|
eA~A2 eAdA|eAfA gfga|bgab gedg |BAGB d2|
